src/pos-icons/chess-pawn.svg

<svg height="24" viewBox="0 0 24 24" width="24" xmlns="http://www.w3.org/2000/svg"><path d="m19 22h-14v-2h14zm-3-4-2.8-10.26c1.52-.67 2.21-2.43 1.54-3.95-.66-1.52-2.43-2.21-3.95-1.54-1.52.66-2.21 2.43-1.54 3.95.3.69.85 1.24 1.54 1.54l-2.79 10.26z"/></svg>

<?xml version="1.0" encoding="UTF-8"?><!DOCTYPE svg PUBLIC "-//W3C//DTD SVG 1.1//EN" "http://www.w3.org/Graphics/SVG/1.1/DTD/svg11.dtd"><svg xmlns="http://www.w3.org/2000/svg" xmlns:xlink="http://www.w3.org/1999/xlink" version="1.1" id="mdi-chess-pawn" width="24" height="24" viewBox="0 0 24 24"><path d="M19,22H5V20H19V22M16,18L13.2,7.74C14.72,7.07 15.41,5.31 14.74,3.79C14.08,2.27 12.31,1.58 10.79,2.25C9.27,2.91 8.58,4.68 9.25,6.2C9.55,6.89 10.1,7.44 10.79,7.74L8,18H16Z" /></svg>
